rospo-dark/small/status/media-playlist-repeat-song-symbolic.svg

<?xml version="1.0" encoding="UTF-8" standalone="no"?>
<svg
   xmlns:dc="http://purl.org/dc/elements/1.1/"
   xmlns:cc="http://creativecommons.org/ns#"
   xmlns:rdf="http://www.w3.org/1999/02/22-rdf-syntax-ns#"
   xmlns:svg="http://www.w3.org/2000/svg"
   xmlns="http://www.w3.org/2000/svg"
   xmlns:sodipodi="http://sodipodi.sourceforge.net/DTD/sodipodi-0.dtd"
   xmlns:inkscape="http://www.inkscape.org/namespaces/inkscape"
   width="22"
   height="22"
   version="1.1"
   id="svg6"
   sodipodi:docname="media-playlist-repeat-song-symbolic.svg"
   inkscape:version="0.92.1 r">
  <metadata
     id="metadata12">
    <rdf:RDF>
      <cc:Work
         rdf:about="">
        <dc:format>image/svg+xml</dc:format>
        <dc:type
           rdf:resource="http://purl.org/dc/dcmitype/StillImage" />
      </cc:Work>
    </rdf:RDF>
  </metadata>
  <defs
     id="defs10" />
  <sodipodi:namedview
     pagecolor="#ffffff"
     bordercolor="#666666"
     borderopacity="1"
     objecttolerance="10"
     gridtolerance="10"
     guidetolerance="10"
     inkscape:pageopacity="0"
     inkscape:pageshadow="2"
     inkscape:window-width="769"
     inkscape:window-height="480"
     id="namedview8"
     showgrid="false"
     inkscape:zoom="10.727273"
     inkscape:cx="11"
     inkscape:cy="11"
     inkscape:window-x="0"
     inkscape:window-y="0"
     inkscape:window-maximized="0"
     inkscape:current-layer="svg6" />
  <g
     id="g4491"
     transform="translate(3,3)">
    <path
       id="path2"
       d="M 11.5,8 C 9.57,8 8,9.57 8,11.5 8,13.43 9.57,15 11.5,15 13.43,15 15,13.43 15,11.5 15,9.57 13.43,8 11.5,8 Z M 11,9 h 1 v 5 H 11 V 10.5 H 10 V 10 c 1,0 1,-1 1,-1 z"
       style="fill:#d3dae3"
       inkscape:connector-curvature="0" />
    <path
       id="path4"
       d="M 6,1 V 3 H 4 C 2.338,3 1,4.338 1,6 v 4 c 0,1.662 1.338,3 3,3 H 7.2637 A 4.5,4.5 0 0 1 7,11.5 4.5,4.5 0 0 1 7.0312,11 H 4 C 3.446,11 3,10.554 3,10 V 6 C 3,5.446 3.446,5 4,5 h 2 v 2 l 4,-3 z m 5,2 v 2 h 1 c 0.554,0 1,0.446 1,1 v 1.2637 a 4.5,4.5 0 0 1 2,1.4101 V 6 C 15,4.338 13.662,3 12,3 Z"
       style="fill:#d3dae3"
       inkscape:connector-curvature="0" />
  </g>
</svg>

<svg xmlns="http://www.w3.org/2000/svg" width="16" height="16" version="1.1">
 <path style="fill:#5c616c" d="M 11.5,8 C 9.57,8 8,9.57 8,11.5 8,13.43 9.57,15 11.5,15 13.43,15 15,13.43 15,11.5 15,9.57 13.43,8 11.5,8 Z M 11,9 H 12 V 14 H 11 V 10.5 H 10 V 10 C 11,10 11,9 11,9 Z"/>
 <path style="fill:#5c616c" d="M 6 1 L 6 3 L 4 3 C 2.338 3 1 4.338 1 6 L 1 10 C 1 11.662 2.338 13 4 13 L 7.2637 13 A 4.5 4.5 0 0 1 7 11.5 A 4.5 4.5 0 0 1 7.0312 11 L 4 11 C 3.446 11 3 10.554 3 10 L 3 6 C 3 5.446 3.446 5 4 5 L 6 5 L 6 7 L 10 4 L 6 1 z M 11 3 L 11 5 L 12 5 C 12.554 5 13 5.446 13 6 L 13 7.2637 A 4.5 4.5 0 0 1 15 8.6738 L 15 6 C 15 4.338 13.662 3 12 3 L 11 3 z"/>
</svg>
